X:12015
T:Liberty
R:March
C:Trad.
O:USA
Z:Paul Hardy's Session Tunebook 2015 (see www.paulhardy.net). Creative Commons cc by-nc-sa licenced.
M:2/2
L:1/8
Q:1/2=90
K:D
"D" f2A2 f2A2|fgfe d2ef|"G"g2B2 g2B2|gagf e2de|
"D" f2A2 f2A2|fgfe d2ef|"G"gfed "A7"cABc|"D"d2f2 d4:|
|:"D"A2AB AGFE|DFAd f2d2|A2AB AGF2|"A7"E3F E2FG|
"D"A2AB AGFE|DFAd f2ef|"G"gfed "A7"cABc|"D"d2f2 d4:|

